images/php8/logo_php8_1.svg

<svg width="417" height="126" viewBox="0 0 417 126" fill="none" xmlns="http://www.w3.org/2000/svg">
<g clip-path="url(#clip0)">
<path fill-rule="evenodd" clip-rule="evenodd" d="M21.4 125.4H0.399994L19.1 29.2002H59.4C71.5 29.2002 80.4 32.4002 85.9 38.7002C91.5 45.1002 93.1 53.9002 90.9 65.4002C90 70.1002 88.4 74.4002 86.3 78.3002C84.1 82.2002 81.3 85.8002 77.8 89.0002C73.6 92.9002 69 95.7002 63.9 97.4002C58.8 99.1002 52.3 99.9002 44.3 99.9002H26.3L21.4 125.4ZM67.4 48.8002C64.7 45.9002 59.4 44.4002 51.5 44.4002H37.1L29.3 84.7002H42C50.4 84.7002 56.7 83.1002 60.9 79.9002C65 76.7002 67.8 71.4002 69.3 64.0002C70.7 56.8002 70 51.8002 67.4 48.8002Z" fill="white"/>
<path d="M106.3 3.6001H127.1L122.1 29.2001H140.6C152.3 29.2001 160.3 31.2001 164.7 35.3001C169.1 39.4001 170.5 46.0001 168.7 55.1001L160 99.9001H138.9L147.2 57.3001C148.1 52.5001 147.8 49.2001 146.2 47.4001C144.6 45.6001 141.1 44.8001 135.8 44.8001H119.2L108.5 99.9001H87.6L106.3 3.6001Z" fill="white"/>
<path fill-rule="evenodd" clip-rule="evenodd" d="M184.9 125.4H163.9L182.6 29.2002H223C235.1 29.2002 244 32.4002 249.5 38.7002C255.1 45.1002 256.7 53.9002 254.5 65.4002C253.6 70.1002 252 74.4002 249.9 78.3002C247.7 82.2002 244.9 85.8002 241.4 89.0002C237.2 92.9002 232.6 95.7002 227.5 97.4002C222.4 99.1002 215.9 99.9002 207.9 99.9002H189.9L184.9 125.4ZM231 48.8002C228.3 45.9002 223 44.4002 215.1 44.4002H200.7L192.9 84.7002H205.6C214 84.7002 220.3 83.1002 224.5 79.9002C228.6 76.7002 231.4 71.4002 232.9 64.0002C234.2 56.8002 233.6 51.8002 231 48.8002Z" fill="white"/>
<path d="M317.4 48.1C311.7 34.5 306.9 22.7 311.6 14.5C313.4 12 315.4 10.7 317.6 10.7C322.1 10.7 326.2 15.6 326.2 15.6L331.9 22.5L328.3 14.3C328.1 13.9 322 0 311 0C307.2 0 303.2 1.7 299.3 5.1L299.2 5.2C289.7 16.2 299 37 307.3 55.3L313.4 69.5C313.4 69.5 314 70 313.4 69.5C316.2 76.8 319 85.5 317.3 91.9C314.7 101.9 305.8 108.7 305.7 108.8L300 113.2L306.9 111C307.6 110.8 322.9 105.8 326.6 92.5C328.9 81.6 326 70.7 323.1 62.3C323.5 62 322.7 62.6 323.1 62.3L317.8 48.6" fill="white"/>
<path d="M334.3 9.4001L327.2 1.6001L332.3 10.9001C332.4 11.0001 338.6 22.6001 330.7 36.1001C327.8 40.3001 323.3 44.5001 317.6 48.7001L307.2 55.4001C307.1 55.2001 307.1 55.3001 307.2 55.4001L306.8 55.7001H306.9H306.8C295.3 62.3001 284.6 66.3001 284.4 66.4001C268.5 73.5001 258.5 84.5001 257.1 96.7001C256 105.9 260.3 114.9 268.7 121.2L268.8 121.3C274.1 124.5 279.8 126.1 285.8 126.1C301.5 126.1 313.8 115.2 314.3 114.7L322 107.8L312.9 112.6C312.8 112.6 305.2 116.6 297.3 116.6C290.2 116.6 285.2 113.5 282.2 107.2C278.4 93.8001 291.7 84.6001 307 74.0001C309 72.6001 311.1 71.1001 313.2 69.7001L313.3 69.6001L322.4 62.8001C322.5 62.6001 322.8 62.4001 322.8 62.4001C330.3 56.2001 340.2 46.5001 342.5 32.9001C344.4 20.6001 334.7 9.9001 334.3 9.4001Z" fill="#0F0F0F"/>
<path d="M347.4 81.3999H367.3L360.8 104.2H340.9L347.4 81.3999Z" fill="white"/>
<path d="M393 47.0001L381.1 50.5001V33.9001L401.6 27.1001H416.6L398.4 104.2H379L393 47.0001Z" fill="white"/>
</g>
<defs>
<clipPath id="clip0">
<rect width="417" height="126" fill="white"/>
</clipPath>
</defs>
</svg>

<?xml version="1.0" encoding="utf-8"?>
<!-- Generator: Adobe Illustrator 24.3.2, SVG Export Plug-In . SVG Version: 6.00 Build 0)  -->
<svg version="1.1" id="Слой_1" xmlns="http://www.w3.org/2000/svg" xmlns:xlink="http://www.w3.org/1999/xlink" x="0px" y="0px"
	 viewBox="0 0 417 126" style="enable-background:new 0 0 417 126;" xml:space="preserve">
<style type="text/css">
	.st0{fill:none;}
	.st1{fill-rule:evenodd;clip-rule:evenodd;fill:#FFFFFF;}
	.st2{fill:#FFFFFF;}
	.st3{fill:#0F0F0F;}
</style>
<g>
	<rect y="0" class="st0" width="417" height="126"/>
	<path class="st1" d="M21.4,125.4h-21l18.7-96.2h40.3c12.1,0,21,3.2,26.5,9.5c5.6,6.4,7.2,15.2,5,26.7c-0.9,4.7-2.5,9-4.6,12.9
		c-2.2,3.9-5,7.5-8.5,10.7c-4.2,3.9-8.8,6.7-13.9,8.4s-11.6,2.5-19.6,2.5h-18L21.4,125.4z M67.4,48.8c-2.7-2.9-8-4.4-15.9-4.4H37.1
		l-7.8,40.3H42c8.4,0,14.7-1.6,18.9-4.8c4.1-3.2,6.9-8.5,8.4-15.9C70.7,56.8,70,51.8,67.4,48.8z"/>
	<path class="st2" d="M106.3,3.6h20.8l-5,25.6h18.5c11.7,0,19.7,2,24.1,6.1c4.4,4.1,5.8,10.7,4,19.8L160,99.9h-21.1l8.3-42.6
		c0.9-4.8,0.6-8.1-1-9.9c-1.6-1.8-5.1-2.6-10.4-2.6h-16.6l-10.7,55.1H87.6L106.3,3.6z"/>
	<path class="st1" d="M184.9,125.4h-21l18.7-96.2H223c12.1,0,21,3.2,26.5,9.5c5.6,6.4,7.2,15.2,5,26.7c-0.9,4.7-2.5,9-4.6,12.9
		c-2.2,3.9-5,7.5-8.5,10.7c-4.2,3.9-8.8,6.7-13.9,8.4s-11.6,2.5-19.6,2.5h-18L184.9,125.4z M231,48.8c-2.7-2.9-8-4.4-15.9-4.4h-14.4
		l-7.8,40.3h12.7c8.4,0,14.7-1.6,18.9-4.8c4.1-3.2,6.9-8.5,8.4-15.9C234.2,56.8,233.6,51.8,231,48.8z"/>
	<path class="st2" d="M317.4,48c-5.7-13.6-10.5-25.4-5.8-33.6c1.8-2.5,3.8-3.8,6-3.8c4.5,0,8.6,4.9,8.6,4.9l5.7,6.9l-3.6-8.2
		C328.1,13.9,322,0,311,0c-3.8,0-7.8,1.7-11.7,5.1l-0.1,0.1c-9.5,11-0.2,31.8,8.1,50.1l6.1,14.2c0,0,0.6,0.5,0,0
		c2.8,7.3,5.6,16,3.9,22.4c-2.6,10-11.5,16.8-11.6,16.9l-5.7,4.4l6.9-2.2c0.7-0.2,16-5.2,19.7-18.5c2.3-10.9-0.6-21.8-3.5-30.2
		c0.4-0.3-0.4,0.3,0,0l-5.3-13.7"/>
	<path class="st3" d="M334.3,9.4l-7.1-7.8l5.1,9.3c0.1,0.1,6.3,11.7-1.6,25.2c-2.9,4.2-7.4,8.4-13.1,12.6l-10.4,6.7
		c-0.1-0.2-0.1-0.1,0,0l-0.4,0.3h0.1h-0.1c-11.5,6.6-22.2,10.6-22.4,10.7c-15.9,7.1-25.9,18.1-27.3,30.3
		c-1.1,9.2,3.2,18.2,11.6,24.5l0.1,0.1c5.3,3.2,11,4.8,17,4.8c15.7,0,28-10.9,28.5-11.4l7.7-6.9l-9.1,4.8c-0.1,0-7.7,4-15.6,4
		c-7.1,0-12.1-3.1-15.1-9.4c-3.8-13.4,9.5-22.6,24.8-33.2c2-1.4,4.1-2.9,6.2-4.3l0.1-0.1l9.1-6.8c0.1-0.2,0.4-0.4,0.4-0.4
		c7.5-6.2,17.4-15.9,19.7-29.5C344.4,20.6,334.7,9.9,334.3,9.4z"/>
	<path class="st2" d="M347.4,81.3h19.9l-6.5,22.8h-19.9L347.4,81.3z"/>
	<path class="st2" d="M390.9,47L379,50.5V33.9l20.5-6.8h15l-15.2,77.1h-19.4L390.9,47z"/>
</g>
</svg>
